res/skins/LateNight/palemoon/buttons/btn__play_deck.svg

<svg width="50" height="24" version="1.1" xmlns="http://www.w3.org/2000/svg">
  <g transform="translate(0,2)" fill="none" stroke="#000001" stroke-linecap="round" stroke-linejoin="round" stroke-width="1.6">
    <path d="m28.0005 4h4v12h-4v-12"/>
    <path d="m35.0009 4v12h4v-12h-4"/>
    <path d="m12.0005 4 8.9995 6-8.9995 6v-12"/>
  </g>
  <g transform="translate(1.00049 1)" fill="#918273">
    <path d="m27 5h4v12h-4v-12"/>
    <path d="m34 5v12h4v-12h-4"/>
    <path d="m11 5 8.9995 6-8.9995 6v-12"/>
  </g>
</svg>

<?xml version="1.0" encoding="UTF-8" standalone="no"?>
<svg
   xmlns:dc="http://purl.org/dc/elements/1.1/"
   xmlns:cc="http://creativecommons.org/ns#"
   xmlns:rdf="http://www.w3.org/1999/02/22-rdf-syntax-ns#"
   xmlns:svg="http://www.w3.org/2000/svg"
   xmlns="http://www.w3.org/2000/svg"
   xmlns:sodipodi="http://sodipodi.sourceforge.net/DTD/sodipodi-0.dtd"
   xmlns:inkscape="http://www.inkscape.org/namespaces/inkscape"
   width="56"
   height="56"
   version="1.1"
   id="svg34"
   sodipodi:docname="btn__play_deck.svg"
   inkscape:version="1.0.2 (e86c870879, 2021-01-15)">
  <metadata
     id="metadata40">
    <rdf:RDF>
      <cc:Work
         rdf:about="">
        <dc:format>image/svg+xml</dc:format>
        <dc:type
           rdf:resource="http://purl.org/dc/dcmitype/StillImage" />
        <dc:title></dc:title>
      </cc:Work>
    </rdf:RDF>
  </metadata>
  <defs
     id="defs38" />
  <sodipodi:namedview
     pagecolor="#ffffff"
     bordercolor="#666666"
     borderopacity="1"
     objecttolerance="10"
     gridtolerance="10"
     guidetolerance="10"
     inkscape:pageopacity="0"
     inkscape:pageshadow="2"
     inkscape:window-width="1920"
     inkscape:window-height="1017"
     id="namedview36"
     showgrid="false"
     inkscape:zoom="3.7007025"
     inkscape:cx="-12.459739"
     inkscape:cy="-6.4157749"
     inkscape:window-x="0"
     inkscape:window-y="26"
     inkscape:window-maximized="1"
     inkscape:current-layer="svg34" />
  <g
     transform="matrix(1.7036782,0,0,1.7528874,-15.444987,10.471126)"
     fill="none"
     stroke="#000001"
     stroke-linecap="round"
     stroke-linejoin="round"
     stroke-width="0.925868"
     id="g24">
    <path
       d="m 28.0005,4 h 4 v 12 h -4 V 4"
       id="path18"
       style="stroke-width:0.925868" />
    <path
       d="m 35.0009,4 v 12 h 4 V 4 h -4"
       id="path20"
       style="stroke-width:0.925868" />
    <path
       d="M 12.0005,4 21,10 12.0005,16 V 4"
       id="path22"
       style="stroke-width:0.925868" />
  </g>
  <g
     transform="matrix(1.7036782,0,0,1.7528874,-13.740116,8.7182386)"
     fill="#918273"
     id="g32"
     style="stroke-width:0.578668">
    <path
       d="m 27,5 h 4 V 17 H 27 V 5"
       id="path26"
       style="stroke-width:0.578668" />
    <path
       d="m 34,5 v 12 h 4 V 5 h -4"
       id="path28"
       style="stroke-width:0.578668" />
    <path
       d="M 11,5 19.9995,11 11,17 V 5"
       id="path30"
       style="stroke-width:0.578668" />
  </g>
</svg>
